static/assets/img/icons/theme/shopping/sort-3.svg

<svg height="24" viewBox="0 0 24 24" width="24" xmlns="http://www.w3.org/2000/svg"><g fill="none" fill-rule="evenodd"><path d="m0 0h24v24h-24z" opacity="0"/><path d="m18.5 6c.8284271 0 1.5.67157288 1.5 1.5v11c0 .8284271-.6715729 1.5-1.5 1.5s-1.5-.6715729-1.5-1.5v-11c0-.82842712.6715729-1.5 1.5-1.5zm-6 5c.8284271 0 1.5.6715729 1.5 1.5v6c0 .8284271-.6715729 1.5-1.5 1.5s-1.5-.6715729-1.5-1.5v-6c0-.8284271.6715729-1.5 1.5-1.5zm-6 4c.82842712 0 1.5.6715729 1.5 1.5v2c0 .8284271-.67157288 1.5-1.5 1.5s-1.5-.6715729-1.5-1.5v-2c0-.8284271.67157288-1.5 1.5-1.5z" fill="#000"/></g></svg>

<svg width="24px" height="24px" viewBox="0 0 24 24" version="1.1" xmlns="http://www.w3.org/2000/svg" xmlns:xlink="http://www.w3.org/1999/xlink">
    <title>Icon For Sort#3</title>
    <g stroke="none" stroke-width="1" fill="none" fill-rule="evenodd">
        <rect opacity="0" x="0" y="0" width="24" height="24"></rect>
        <path d="M18.5,6 C19.3284271,6 20,6.67157288 20,7.5 L20,18.5 C20,19.3284271 19.3284271,20 18.5,20 C17.6715729,20 17,19.3284271 17,18.5 L17,7.5 C17,6.67157288 17.6715729,6 18.5,6 Z M12.5,11 C13.3284271,11 14,11.6715729 14,12.5 L14,18.5 C14,19.3284271 13.3284271,20 12.5,20 C11.6715729,20 11,19.3284271 11,18.5 L11,12.5 C11,11.6715729 11.6715729,11 12.5,11 Z M6.5,15 C7.32842712,15 8,15.6715729 8,16.5 L8,18.5 C8,19.3284271 7.32842712,20 6.5,20 C5.67157288,20 5,19.3284271 5,18.5 L5,16.5 C5,15.6715729 5.67157288,15 6.5,15 Z" fill="#000000"></path>
    </g>
</svg>
